icon-svg/spotpear-round-speaker-N16R8.svg

<svg xmlns="http://www.w3.org/2000/svg" fill="#44739e" viewBox="0 0 24 24"><path d="M12 12.311c3.321 0 6.023-1.934 6.023-4.312S15.321 3.686 12 3.686 5.977 5.621 5.977 8 8.679 12.311 12 12.311m4.717-3.047-.593.856-.1-.029.62-.862zm-.134-.311-.747 1.1-.1-.028.774-1.105zm-1.036 1.03-.1-.029.658-.922.069.035zM9.876 7.876l.069.035-.445.625-.1-.029Zm-.665.591-.1-.029.62-.863.069.035Zm1.279-1.038.07.036-.773 1.14-.1-.029zm.524-.3.071.035-1.01 1.514-.1-.029zm.175.248.07.036-.9 1.334-.1-.029zm.067-1.756a.225.225 0 0 1 .2-.075c.063.013.065.064.013.123a.223.223 0 0 1-.2.074c-.06-.018-.064-.071-.013-.126Zm.1 2.019.07.035-.773 1.14-.1-.028zm.677-.547.071.035-1.165 1.752-.1-.028zm.332 0 .071.035-1.209 1.821-.1-.028zm.091.38.071.035-1.01 1.514-.1-.029zm.192.221.071.035-.919 1.358-.1-.029Zm.236.152.07.035-.861 1.279-.1-.029zm.058.432.07.035-.631.916-.1-.029zm.133.315.069.035-.475.67-.1-.029zm.288.069.069.035-.475.67-.1-.029zm.061-2.541a.227.227 0 0 1 .2-.076c.061.014.061.066.007.126a.228.228 0 0 1-.2.075c-.061-.019-.062-.072-.009-.129Zm.463 2.236.07.035-.712 1.043-.1-.028zm.4-.1.07.035-.826 1.208-.1-.028zm.476-.229.07.035-1.01 1.514-.1-.029zm.174.249L15 8.3l-.9 1.334-.1-.029Zm.043.456.07.035-.651.947-.1-.029zm.17.256.069.035-.532.76-.1-.029zm.109.353.067.035-.351.476-.092-.029zm.393-.1.069.035-.458.642-.094-.029zm-.116-3.7a.84.84 0 0 1 .425-.032c.244.058.194.24.046.393a2.45 2.45 0 0 1-.937.476l-.164.056.5.125-.115.12-.717-.18.084-.088.223-.08a2.55 2.55 0 0 0 .952-.453c.105-.108.146-.222-.022-.262a.69.69 0 0 0-.327.033Zm-.9-.208a.843.843 0 0 1 .426-.033c.246.057.2.237.054.389a2.41 2.41 0 0 1-.93.473l-.164.056.5.123-.113.118-.715-.174.083-.087.223-.083a2.53 2.53 0 0 0 .946-.451c.1-.107.142-.219-.028-.259a.694.694 0 0 0-.328.033Zm-.472.144c.062.014.063.065.008.125a.229.229 0 0 1-.2.076c-.061-.014-.062-.068-.008-.124a.227.227 0 0 1 .197-.083zm-.8-.432a.87.87 0 0 1 .428-.033c.249.055.207.234.065.383a2.34 2.34 0 0 1-.921.47l-.163.056.51.12-.111.117-.724-.171.081-.086.221-.079a2.49 2.49 0 0 0 .938-.447c.1-.106.136-.217-.036-.256a.7.7 0 0 0-.328.034Zm-.464-.233c.246.053.2.279-.107.61-.33.352-.655.513-.908.455-.224-.051-.2-.274.11-.616a1.094 1.094 0 0 1 .905-.449m-.928.17c.063.014.066.064.014.123a.229.229 0 0 1-.2.075c-.062-.014-.066-.066-.015-.122a.229.229 0 0 1 .199-.076Zm-.645-.483.564.118-.107.117-.45-.095-.286.253a.9.9 0 0 1 .1.014.328.328 0 0 1 .2.109c.05.066.044.171-.075.3a.842.842 0 0 1-.751.254.377.377 0 0 1-.233-.126l.135-.1a.34.34 0 0 0 .2.11.536.536 0 0 0 .476-.154c.119-.133.105-.249-.129-.3a1.6 1.6 0 0 0-.172-.024Zm-.85-.022-.293.053.064-.11.368-.067.137.028L9.832 5.4l-.153-.033.8-.886ZM9.67 7.3l-.747 1.1-.1-.029.774-1.1Zm-.2-.214-.835 1.243-.1-.029.865-1.25Zm-.17-.243L8.347 8.26l-.1-.028.976-1.424Zm-.463.208-.773 1.14-.1-.028.8-1.147Zm-.561.349-.5.719-.095-.029.531-.725Zm-.4.1-.4.546-.094-.029.421-.551Zm-.4.1-.289.379-.087-.024.314-.384ZM7.3 7.371l-.4.545-.093-.029.421-.551Zm-.16-.416.07.035-.594.857-.1-.029Zm-.163 1.572c-.045-.028-.043-.077-.041-.12a.4.4 0 0 0 0-.107c-.019-.086-.075-.187-.131-.2s-.121.056-.171.1-.107.1-.162.072-.055-.115.01-.313l.1.033a1.1 1.1 0 0 0-.041.151l.019-.019c.068-.065.161-.155.268-.132.126.028.193.195.211.28a.5.5 0 0 1 .007.134v.021a.63.63 0 0 0 .125-.083.73.73 0 0 0 .1-.1.267.267 0 0 1 .13-.092.232.232 0 0 1 .239.054c.043.061.018.126-.019.225-.022.056-.048.125-.075.219-.037.127-.047.2-.03.229a.16.16 0 0 0 .167.048c.036-.012.05-.037.085-.105a1.3 1.3 0 0 1 .117-.2.514.514 0 0 1 .333-.26.292.292 0 0 1 .252.089c.052.069.042.146-.071.591a.85.85 0 0 0-.032.247c0 .08 0 .149.038.177s.155.016.283-.052c.083-.044.121-.089.263-.255l.062-.059c.235-.275.308-.349.432-.391a.6.6 0 0 1 .263-.025.582.582 0 0 1 .4.231c.065.113.039.2-.069.586l-.051.182a1.5 1.5 0 0 0-.1.484s.026.414.225.476a.375.375 0 0 0 .286-.085.665.665 0 0 0 .24-.272 2.06 2.06 0 0 1 .2-.3 2.13 2.13 0 0 1 .535-.466 1.26 1.26 0 0 1 .439-.19.57.57 0 0 1 .425.03.52.52 0 0 1 .218.369.44.44 0 0 1-.035.222.82.82 0 0 0-.056.243c-.01.126-.017.209.034.269a.286.286 0 0 0 .286.063c.067-.02.1-.057.217-.208l.064-.081c.285-.361.371-.426.447-.469a.54.54 0 0 1 .416-.084.47.47 0 0 1 .31.322.457.457 0 0 1-.055.319 2.55 2.55 0 0 0-.116.323c-.067.232-.1.339-.058.446a.454.454 0 0 0 .424.306c.123-.01.2-.1.373-.311a2.6 2.6 0 0 0 .262-.392.99.99 0 0 1 .317-.38.766.766 0 0 1 .392-.146.69.69 0 0 1 .32.062l-.043.1a.59.59 0 0 0-.272-.053.66.66 0 0 0-.337.128.873.873 0 0 0-.285.345 2.73 2.73 0 0 1-.273.407c-.17.208-.272.334-.446.349h-.032a.567.567 0 0 1-.5-.378.844.844 0 0 1 .056-.509 2.7 2.7 0 0 1 .121-.335.36.36 0 0 0 .05-.252.365.365 0 0 0-.237-.247.436.436 0 0 0-.335.075c-.061.034-.144.1-.417.442l-.063.081c-.122.155-.168.214-.27.244a.389.389 0 0 1-.4-.1.45.45 0 0 1-.058-.346.92.92 0 0 1 .062-.27.33.33 0 0 0 .03-.175.417.417 0 0 0-.169-.29.47.47 0 0 0-.349-.016 1.12 1.12 0 0 0-.4.174 1.99 1.99 0 0 0-.7.729.774.774 0 0 1-.274.307.464.464 0 0 1-.373.1c-.264-.082-.3-.52-.3-.57a1.57 1.57 0 0 1 .1-.518c.019-.068.036-.128.052-.183.1-.362.12-.432.079-.505a.5.5 0 0 0-.541-.158c-.094.031-.151.085-.386.36l-.063.073a.96.96 0 0 1-.294.28c-.1.055-.29.132-.4.04a.323.323 0 0 1-.07-.262.91.91 0 0 1 .039-.272c.1-.4.109-.476.089-.5-.044-.058-.156-.048-.158-.047-.106.011-.18.111-.258.217a1.17 1.17 0 0 0-.108.18c-.037.073-.067.131-.145.158a.264.264 0 0 1-.288-.089c-.033-.049-.042-.119.015-.317.029-.1.057-.173.078-.228s.043-.111.033-.125-.076-.028-.125-.014a.163.163 0 0 0-.081.061.87.87 0 0 1-.117.111c-.08.057-.183.138-.258.092m5.015-2.755c.159.036.39-.113.637-.378s.322-.439.159-.474c-.138-.03-.378.1-.639.379s-.298.441-.157.473M12 14.1c4.6 0 8.344-2.714 8.344-6.05S16.6 2 12 2 3.656 4.714 3.656 8.05 7.4 14.1 12 14.1M7.331 4.471A7.945 7.945 0 0 1 12 3.054a7.945 7.945 0 0 1 4.669 1.417A4.395 4.395 0 0 1 18.655 8a4.394 4.394 0 0 1-1.986 3.527A7.945 7.945 0 0 1 12 12.943a7.945 7.945 0 0 1-4.669-1.417A4.394 4.394 0 0 1 5.345 8a4.395 4.395 0 0 1 1.986-3.529m10.774 8.096A10.4 10.4 0 0 1 12 14.415a10.4 10.4 0 0 1-6.1-1.848 6.46 6.46 0 0 1-2.069-2.4l.1 1.38h.055v.059a4.2 4.2 0 0 0 .035.539l.313 3.828v.192a4.52 4.52 0 0 0 .1.933C5 19.875 8.121 22 11.889 22c4.06 0 7.548-2.511 7.746-5.61l.533-4.249-.048.03a4.1 4.1 0 0 0 .048-.617l.059-1.506a6.393 6.393 0 0 1-2.122 2.519"/></svg>

<?xml version="1.0" encoding="UTF-8"?>
<svg width="24px" fill="#44739e" height="24px" viewBox="0 0 24 24" version="1.1" xmlns="http://www.w3.org/2000/svg" xmlns:xlink="http://www.w3.org/1999/xlink">
            <path d="m 12,12.311 c 3.321,0 6.023,-1.934 6.023,-4.312 C 18.023,5.621 15.321,3.686 12,3.686 8.679,3.686 5.977,5.621 5.977,8 c 0,2.379 2.702,4.311 6.023,4.311 z m 4.717,-3.047 -0.593,0.856 -0.1,-0.029 0.62,-0.862 z m -0.134,-0.311 -0.747,1.1 -0.1,-0.028 0.774,-1.105 z m -1.036,1.03 -0.1,-0.029 0.658,-0.922 0.069,0.035 z M 9.876,7.876 9.945,7.911 9.5,8.536 9.4,8.507 Z M 9.211,8.467 9.111,8.438 9.731,7.575 9.8,7.61 Z m 1.279,-1.038 0.07,0.036 -0.773,1.14 -0.1,-0.029 z m 0.524,-0.3 0.071,0.035 -1.01,1.514 -0.1,-0.029 z m 0.175,0.248 0.07,0.036 -0.9,1.334 -0.1,-0.029 z m 0.067,-1.756 a 0.225,0.225 0 0 1 0.2,-0.075 c 0.063,0.013 0.065,0.064 0.013,0.123 a 0.223,0.223 0 0 1 -0.2,0.074 C 11.209,5.725 11.205,5.672 11.256,5.617 Z m 0.1,2.019 0.07,0.035 -0.773,1.14 -0.1,-0.028 z m 0.677,-0.547 0.071,0.035 -1.165,1.752 -0.1,-0.028 z m 0.332,0 0.071,0.035 -1.209,1.821 -0.1,-0.028 z m 0.091,0.38 0.071,0.035 -1.01,1.514 -0.1,-0.029 z M 12.648,7.694 12.719,7.729 11.8,9.087 11.7,9.058 Z m 0.236,0.152 0.07,0.035 -0.861,1.279 -0.1,-0.029 z m 0.058,0.432 0.07,0.035 -0.631,0.916 -0.1,-0.029 z m 0.133,0.315 0.069,0.035 -0.475,0.67 -0.1,-0.029 z m 0.288,0.069 0.069,0.035 -0.475,0.67 -0.1,-0.029 z m 0.061,-2.541 a 0.227,0.227 0 0 1 0.2,-0.076 c 0.061,0.014 0.061,0.066 0.007,0.126 a 0.228,0.228 0 0 1 -0.2,0.075 C 13.37,6.227 13.369,6.174 13.422,6.117 Z m 0.463,2.236 0.07,0.035 -0.712,1.043 -0.1,-0.028 z m 0.4,-0.1 0.07,0.035 -0.826,1.208 -0.1,-0.028 z m 0.476,-0.229 0.07,0.035 -1.01,1.514 -0.1,-0.029 z M 14.937,8.277 15,8.3 14.1,9.634 14,9.605 Z m 0.043,0.456 0.07,0.035 -0.651,0.947 -0.1,-0.029 z m 0.17,0.256 0.069,0.035 -0.532,0.76 -0.1,-0.029 z m 0.109,0.353 0.067,0.035 -0.351,0.476 -0.092,-0.029 z m 0.393,-0.1 0.069,0.035 -0.458,0.642 -0.094,-0.029 z m -0.116,-3.7 A 0.841,0.841 0 0 1 15.961,5.51 c 0.244,0.058 0.194,0.24 0.046,0.393 A 2.448,2.448 0 0 1 15.07,6.379 l -0.164,0.056 v 0 l 0.5,0.125 -0.115,0.12 -0.717,-0.18 0.084,-0.088 0.223,-0.08 A 2.553,2.553 0 0 0 15.833,5.879 C 15.938,5.771 15.979,5.657 15.811,5.617 A 0.69,0.69 0 0 0 15.484,5.65 Z m -0.9,-0.208 a 0.843,0.843 0 0 1 0.426,-0.033 c 0.246,0.057 0.2,0.237 0.054,0.389 a 2.409,2.409 0 0 1 -0.93,0.473 l -0.164,0.056 v 0 l 0.5,0.123 L 14.409,6.46 13.694,6.286 13.777,6.199 14,6.116 a 2.532,2.532 0 0 0 0.946,-0.451 c 0.1,-0.107 0.142,-0.219 -0.028,-0.259 A 0.694,0.694 0 0 0 14.59,5.439 Z m -0.472,0.144 c 0.062,0.014 0.063,0.065 0.008,0.125 a 0.229,0.229 0 0 1 -0.2,0.076 C 13.911,5.665 13.91,5.611 13.964,5.555 a 0.227,0.227 0 0 1 0.197,-0.083 z m -0.8,-0.432 a 0.873,0.873 0 0 1 0.428,-0.033 c 0.249,0.055 0.207,0.234 0.065,0.383 a 2.339,2.339 0 0 1 -0.921,0.47 l -0.163,0.056 v 0 l 0.51,0.12 L 13.172,6.159 12.448,5.988 12.529,5.902 12.75,5.823 A 2.486,2.486 0 0 0 13.688,5.376 C 13.788,5.27 13.824,5.159 13.652,5.12 A 0.7,0.7 0 0 0 13.324,5.154 Z M 12.9,4.813 c 0.246,0.053 0.2,0.279 -0.107,0.61 -0.33,0.352 -0.655,0.513 -0.908,0.455 -0.224,-0.051 -0.2,-0.274 0.11,-0.616 A 1.094,1.094 0 0 1 12.9,4.813 Z m -0.928,0.17 c 0.063,0.014 0.066,0.064 0.014,0.123 a 0.229,0.229 0 0 1 -0.2,0.075 C 11.724,5.167 11.72,5.115 11.771,5.059 A 0.229,0.229 0 0 1 11.97,4.983 Z M 11.327,4.5 11.891,4.618 11.784,4.735 11.334,4.64 11.048,4.893 a 0.865,0.865 0 0 1 0.1,0.014 0.328,0.328 0 0 1 0.2,0.109 c 0.05,0.066 0.044,0.171 -0.075,0.3 A 0.842,0.842 0 0 1 10.522,5.57 0.377,0.377 0 0 1 10.289,5.444 l 0.135,-0.1 a 0.341,0.341 0 0 0 0.2,0.11 A 0.536,0.536 0 0 0 11.1,5.3 C 11.219,5.167 11.205,5.051 10.971,5 A 1.622,1.622 0 0 0 10.799,4.976 Z M 10.477,4.478 10.184,4.531 10.248,4.421 10.616,4.354 10.753,4.382 9.832,5.4 9.679,5.367 10.479,4.481 Z M 9.67,7.3 8.923,8.4 8.823,8.371 9.597,7.271 Z M 9.47,7.086 8.635,8.329 8.535,8.3 9.4,7.05 Z M 9.3,6.843 8.347,8.26 8.247,8.232 9.223,6.808 Z M 8.837,7.051 8.064,8.191 7.964,8.163 8.764,7.016 Z M 8.276,7.4 7.776,8.119 7.681,8.09 8.212,7.365 Z M 7.876,7.5 7.476,8.046 7.382,8.017 7.803,7.466 Z M 7.476,7.6 7.187,7.979 7.1,7.955 7.414,7.571 Z M 7.3,7.371 6.9,7.916 6.807,7.887 7.228,7.336 Z M 7.14,6.955 7.21,6.99 6.616,7.847 6.516,7.818 Z M 6.977,8.527 C 6.932,8.499 6.934,8.45 6.936,8.407 a 0.4,0.4 0 0 0 0,-0.107 C 6.917,8.214 6.861,8.113 6.805,8.1 6.749,8.087 6.684,8.156 6.634,8.2 6.584,8.244 6.527,8.3 6.472,8.272 6.417,8.244 6.417,8.157 6.482,7.959 l 0.1,0.033 A 1.1,1.1 0 0 0 6.541,8.143 L 6.56,8.124 C 6.628,8.059 6.721,7.969 6.828,7.992 6.954,8.02 7.021,8.187 7.039,8.272 a 0.5,0.5 0 0 1 0.007,0.134 v 0.021 a 0.628,0.628 0 0 0 0.125,-0.083 0.726,0.726 0 0 0 0.1,-0.1 0.267,0.267 0 0 1 0.13,-0.092 0.232,0.232 0 0 1 0.239,0.054 C 7.683,8.267 7.658,8.332 7.621,8.431 7.599,8.487 7.573,8.556 7.546,8.65 7.509,8.777 7.499,8.85 7.516,8.879 A 0.16,0.16 0 0 0 7.683,8.927 C 7.719,8.915 7.733,8.89 7.768,8.822 A 1.28,1.28 0 0 1 7.885,8.622 0.514,0.514 0 0 1 8.218,8.362 0.292,0.292 0 0 1 8.47,8.451 C 8.522,8.52 8.512,8.597 8.399,9.042 A 0.85,0.85 0 0 0 8.367,9.289 c 0,0.08 0,0.149 0.038,0.177 C 8.443,9.494 8.56,9.482 8.688,9.414 8.771,9.37 8.809,9.325 8.951,9.159 L 9.013,9.1 C 9.248,8.825 9.321,8.751 9.445,8.709 a 0.6,0.6 0 0 1 0.263,-0.025 0.582,0.582 0 0 1 0.4,0.231 c 0.065,0.113 0.039,0.2 -0.069,0.586 L 9.988,9.683 a 1.5,1.5 0 0 0 -0.1,0.484 c 0,0 0.026,0.414 0.225,0.476 a 0.375,0.375 0 0 0 0.286,-0.085 0.665,0.665 0 0 0 0.24,-0.272 2.059,2.059 0 0 1 0.2,-0.3 2.13,2.13 0 0 1 0.535,-0.466 1.265,1.265 0 0 1 0.439,-0.19 0.569,0.569 0 0 1 0.425,0.03 0.521,0.521 0 0 1 0.218,0.369 0.442,0.442 0 0 1 -0.035,0.222 0.821,0.821 0 0 0 -0.056,0.243 c -0.01,0.126 -0.017,0.209 0.034,0.269 a 0.286,0.286 0 0 0 0.286,0.063 c 0.067,-0.02 0.1,-0.057 0.217,-0.208 l 0.064,-0.081 c 0.285,-0.361 0.371,-0.426 0.447,-0.469 a 0.541,0.541 0 0 1 0.416,-0.084 0.47,0.47 0 0 1 0.31,0.322 0.457,0.457 0 0 1 -0.055,0.319 2.547,2.547 0 0 0 -0.116,0.323 c -0.067,0.232 -0.1,0.339 -0.058,0.446 a 0.454,0.454 0 0 0 0.424,0.306 c 0.123,-0.01 0.2,-0.1 0.373,-0.311 a 2.591,2.591 0 0 0 0.262,-0.392 0.992,0.992 0 0 1 0.317,-0.38 0.766,0.766 0 0 1 0.392,-0.146 0.693,0.693 0 0 1 0.32,0.062 l -0.043,0.1 a 0.593,0.593 0 0 0 -0.272,-0.053 0.658,0.658 0 0 0 -0.337,0.128 0.873,0.873 0 0 0 -0.285,0.345 2.725,2.725 0 0 1 -0.273,0.407 c -0.17,0.208 -0.272,0.334 -0.446,0.349 H 14.31 a 0.567,0.567 0 0 1 -0.5,-0.378 0.844,0.844 0 0 1 0.056,-0.509 2.729,2.729 0 0 1 0.121,-0.335 0.359,0.359 0 0 0 0.05,-0.252 A 0.365,0.365 0 0 0 13.8,9.788 0.436,0.436 0 0 0 13.465,9.863 c -0.061,0.034 -0.144,0.1 -0.417,0.442 l -0.063,0.081 c -0.122,0.155 -0.168,0.214 -0.27,0.244 a 0.389,0.389 0 0 1 -0.4,-0.1 0.45,0.45 0 0 1 -0.058,-0.346 0.919,0.919 0 0 1 0.062,-0.27 0.332,0.332 0 0 0 0.03,-0.175 0.417,0.417 0 0 0 -0.169,-0.29 0.469,0.469 0 0 0 -0.349,-0.016 1.119,1.119 0 0 0 -0.4,0.174 1.989,1.989 0 0 0 -0.7,0.729 0.774,0.774 0 0 1 -0.274,0.307 0.464,0.464 0 0 1 -0.373,0.1 c -0.264,-0.082 -0.3,-0.52 -0.3,-0.57 a 1.57,1.57 0 0 1 0.1,-0.518 C 9.903,9.587 9.92,9.527 9.936,9.472 10.036,9.11 10.056,9.04 10.015,8.967 A 0.5,0.5 0 0 0 9.474,8.809 C 9.38,8.84 9.323,8.894 9.088,9.169 L 9.025,9.242 a 0.96,0.96 0 0 1 -0.294,0.28 c -0.1,0.055 -0.29,0.132 -0.4,0.04 A 0.323,0.323 0 0 1 8.261,9.3 0.913,0.913 0 0 1 8.3,9.028 C 8.4,8.628 8.409,8.552 8.389,8.528 8.345,8.47 8.233,8.48 8.231,8.481 8.125,8.492 8.051,8.592 7.973,8.698 A 1.17,1.17 0 0 0 7.865,8.878 C 7.828,8.951 7.798,9.009 7.72,9.036 A 0.264,0.264 0 0 1 7.432,8.947 C 7.399,8.898 7.39,8.828 7.447,8.63 7.476,8.53 7.504,8.457 7.525,8.402 7.546,8.347 7.568,8.291 7.558,8.277 7.548,8.263 7.482,8.249 7.433,8.263 A 0.163,0.163 0 0 0 7.352,8.324 0.868,0.868 0 0 1 7.235,8.435 C 7.155,8.492 7.052,8.573 6.977,8.527 Z M 11.992,5.772 C 12.151,5.808 12.382,5.659 12.629,5.394 12.876,5.129 12.951,4.955 12.788,4.92 12.65,4.89 12.41,5.02 12.149,5.299 11.888,5.578 11.851,5.74 11.992,5.772 Z M 12,14.1 c 4.6,0 8.344,-2.714 8.344,-6.05 C 20.344,4.714 16.6,2 12,2 7.4,2 3.656,4.714 3.656,8.05 3.656,11.386 7.4,14.1 12,14.1 Z M 7.331,4.471 A 7.945,7.945 0 0 1 12,3.054 7.945,7.945 0 0 1 16.669,4.471 4.395,4.395 0 0 1 18.655,8 4.394,4.394 0 0 1 16.669,11.527 7.945,7.945 0 0 1 12,12.943 7.945,7.945 0 0 1 7.331,11.526 4.394,4.394 0 0 1 5.345,8 4.395,4.395 0 0 1 7.331,4.471 Z m 10.774,8.096 A 10.4,10.4 0 0 1 12,14.415 10.4,10.4 0 0 1 5.9,12.567 6.463,6.463 0 0 1 3.831,10.167 l 0.1,1.38 h 0.055 c 0,0.019 0,0.039 0,0.059 a 4.206,4.206 0 0 0 0.035,0.539 l 0.313,3.828 c 0,0.064 0,0.127 0,0.192 a 4.524,4.524 0 0 0 0.1,0.933 v 0 C 5,19.875 8.121,22 11.889,22 c 4.06,0 7.548,-2.511 7.746,-5.61 l 0.533,-4.249 -0.048,0.03 a 4.085,4.085 0 0 0 0.048,-0.617 l 0.059,-1.506 a 6.393,6.393 0 0 1 -2.122,2.519 z"/>

</svg>
